X:14
T:boan opstekker                           %title
C:                           %composer
O:                           %origin
M:12/8                           % type of bar  4/4 or 3/4
L:1/8                           % length of shortest note
Q:1/4=130                           %tempo  Q:1/4=80
I:clef=treble                    %bass octave=-2
K:G    
V:1
"G" dBd "C"e3 ece "G" d3|ded "D7" cBA "G" (G3G)z2||                                                       
"G" d2d d2c B2B B2A| G2G "D7"A2A "G" BcB "D7" A3|"G"d2d dec B2B BcA|G2G "D7"ABA "G"G6:|                                                       
"G"dBd "C"e3 ece "G"d3|ded "D7" cBA "G"GFE "D7" D3|"G"dBd "C"e3 ece "G" d3|ded "D7" cBA "G" (G3 G)z D|                                                       
G2G "D7" A2A "G" BcB "D7" A2D| "G" G2G "D7" A2A "G" BcB "D7" A3|"G" dBd "C" e3 ece "G" d3| ded "D7" cBA "G" (G3 G) z2||                                                       
V:2
"G" dBd "C"e3 ece "G" d3|ded "D7" cBA "G" (G3G)z2||                                                       
d2d B2A G2G G2A|B2B c2c d2d c3|G2B d2g d2d d3|B2B c2c B6:|                                                       
B2B c3 c2c B3| B2d e2f g2d c2B| B2B c3 c2c B3|d2d e2f (g3 g)zG|                                                       
B2B c2c ded c2G |B2B c2c ded c3|B2B c3 c2c B3|d2d e2f (g3g)z2||
